assets/images/svg/mcnellies-sm.svg

<?xml version="1.0" encoding="UTF-8"?>
<svg id="Layer_1" xmlns="http://www.w3.org/2000/svg" version="1.1" viewBox="0 0 473 473">
  <!-- Generator: Adobe Illustrator 29.5.0, SVG Export Plug-In . SVG Version: 2.1.0 Build 137)  -->
  <defs>
    <style>
      .st0 {
        fill: #4f2c1d;
      }
    </style>
  </defs>
  <path class="st0" d="M236.5,0C105.88,0,0,105.89,0,236.5s105.88,236.5,236.5,236.5,236.5-105.88,236.5-236.5S367.12,0,236.5,0ZM452.43,224.18l-11.23-1.52c1.007-4.947,1.027-10.045.06-15-1.27-6.81-4.58-9.61-7.53-9.06-3.72.7-4.65,4.83-5.81,14.44-1.51,13-5.82,19.68-14.06,21.23-9.79,1.83-19.78-5.48-23.36-24.57-1.49-7.95-1.14-16.13,0-20.4l11.43,1.17c-1.309,5.957-1.435,12.114-.37,18.12,1.35,7.23,4.58,10.58,8.4,9.86,3.64-.68,5.1-4.37,6-13.19,1.3-12.21,5.24-20.85,13.74-22.44,10-1.87,19.39,6.72,22.44,23,1.4,8.01,1.17,13.95.29,18.36ZM55.92,211.18c-7.42.44-16.19.52-24.15.28l-.06.2c7.69,2.34,16.45,5.08,23.51,7.37l21.49,7.06-3.71,14.29-56.4-19.48,5.4-20.61,21-1.66c7.24-.48,14.94-.63,22.08-.39l.11-.4c-6.19-3.58-13.19-7.91-18.97-11.93l-17.22-12.23,5.34-20.31,58.46,11.46-3.95,15-22.3-4.67c-7-1.51-15.43-3.4-23.79-5.6l-.06.2c6.75,4.16,14.2,9.16,20.24,13.57l20.25,14.22-3.19,12.12-24.08,1.51ZM133.22,75.95c7.16,3.14,14.102,6.754,20.78,10.82l.17-.12c-5.256-6.432-10.122-13.174-14.57-20.19l-9.39-14.52,12.35-8,32.29,49.91-14.11,9.12-25.15-11c-7.467-3.181-14.722-6.839-21.72-10.95l-.35.23c4.75,6.38,9.48,13.3,14.75,21.45l9.73,15-12.35,8-32.3-49.93,15.65-10.16,24.22,10.34ZM214.51,24.9l2.21,10.8-27.06,5.54,2.48,12.1,25.51-5.22,2.19,10.65-25.51,5.23,2.83,13.82,28.5-5.83,2.21,10.8-44.14,9-11.92-58.24,42.7-8.65ZM257.12,25.96l-5.4,47.81,28,3.16-1.27,11.22-43.82-5,6.67-59.07,15.82,1.88ZM322.29,42.61l-19.79,43.88,25.66,11.56-4.64,10.3-40.2-18.13,24.42-54.2,14.55,6.59ZM377,76.26l-36.69,46.79-12.57-9.84,36.67-46.79,12.59,9.84ZM348.43,315.77c-.843.32-1.529.954-1.914,1.768-.386.815-.442,1.747-.156,2.602.1.27,9,27.77-2.31,48.24-5.56,10-15.2,16.79-28.66,20.14-4.59-.4-41.85-4.76-67.85-41.51-.441-.614-1.069-1.07-1.789-1.299-.721-.229-1.496-.218-2.211.029-.72.258-1.336.745-1.753,1.386-.417.641-.613,1.401-.557,2.164,1.13,15.37.34,41.49-6.31,48.82h-14.59c5.13-6.898,8.823-14.756,10.858-23.108,2.036-8.352,2.373-17.027.992-25.512-.105-.68-.409-1.313-.873-1.821-.465-.507-1.069-.865-1.737-1.029-.669-.168-1.372-.134-2.022.097-.65.231-1.216.65-1.628,1.203-.31.42-31.42,41.54-66.1,40.59-15.48-.42-24.28-10.14-28.93-18.22-8.68-15.08-10-36.87-3.09-49.6.234-.431.376-.907.415-1.396.04-.489-.023-.981-.185-1.444-.166-.468-.431-.894-.776-1.251-.345-.358-.762-.637-1.224-.819-7.748-3.622-14.624-8.871-20.16-15.39-11.72-14-13.72-31.23-5.93-51.1,4.41-11.24,11.7-18.85,21.67-22.62,25.63-9.68,61.12,8.27,61.47,8.45.683.355,1.465.473,2.223.338.757-.136,1.449-.518,1.967-1.088.518-.566.835-1.288.902-2.052.067-.765-.12-1.53-.532-2.178-4.878-7.918-9.318-16.097-13.3-24.5-8.26-17.52-11.93-31.39-10.63-40.11,1.79-12.01,10.29-31.97,26.29-37.85,12.64-4.66,27.53.37,44.25,14.94.657.573,1.503.88,2.374.861.871-.018,1.704-.361,2.336-.961.23-.21,23.05-21.57,44-16.6,8.65,2.06,19.73,10.86,25,25.88,10.55,30.26-9.2,61.87-21.91,78-.488.618-.754,1.382-.754,2.17s.266,1.552.754,2.17c.489.619,1.173,1.055,1.941,1.236.768.182,1.574.098,2.289-.236.53-.25,52.85-24.51,77.83,5.09,13.06,15.48,12.69,30.84,10.08,41-4.03,15.32-15.95,29.17-29.76,34.52ZM414.7,162.27l-4.7-8.5c8.33-.167,16.621-1.172,24.75-3l6.79,13.3c-8.987.553-18.008-.052-26.84-1.8h0ZM413.76,134.09l-16.92-21.83-9.76,7.57,16,20.58-8.65,6.7-16-20.58-11.15,8.65,17.82,23-8.72,6.76-27.58-35.62,47-36.43,26.7,34.44-8.74,6.76ZM95.86,112.09c-2.513,1.692-4.704,3.819-6.47,6.28-5.11,6.68-4.43,14.07,1.24,18.27,6.24,4.77,13.43,2.33,18.15-3.84,1.939-2.415,3.435-5.154,4.42-8.09l9,4.49c-.81,3-3.36,7.74-7.06,12.58-10.08,13.18-23.32,16.41-34,8.22-10-7.66-12-22.11-.36-37.29,2.488-3.283,5.427-6.199,8.73-8.66l6.35,8.04Z"/>
</svg>

<svg width="473" height="473" viewBox="0 0 473 473" fill="none" xmlns="http://www.w3.org/2000/svg">
<g clip-path="url(#clip0_601_1817)">
<path d="M236.5 0C105.88 0 0 105.89 0 236.5C0 367.11 105.88 473 236.5 473C367.12 473 473 367.12 473 236.5C473 105.88 367.12 0 236.5 0ZM452.43 224.18L441.2 222.66C442.207 217.713 442.227 212.615 441.26 207.66C439.99 200.85 436.68 198.05 433.73 198.6C430.01 199.3 429.08 203.43 427.92 213.04C426.41 226.04 422.1 232.72 413.86 234.27C404.07 236.1 394.08 228.79 390.5 209.7C389.01 201.75 389.36 193.57 390.5 189.3L401.93 190.47C400.621 196.427 400.495 202.584 401.56 208.59C402.91 215.82 406.14 219.17 409.96 218.45C413.6 217.77 415.06 214.08 415.96 205.26C417.26 193.05 421.2 184.41 429.7 182.82C439.7 180.95 449.09 189.54 452.14 205.82C453.54 213.83 453.31 219.77 452.43 224.18ZM55.92 211.18C48.5 211.62 39.73 211.7 31.77 211.46L31.71 211.66C39.4 214 48.16 216.74 55.22 219.03L76.71 226.09L73 240.38L16.6 220.9L22 200.29L43 198.63C50.24 198.15 57.94 198 65.08 198.24L65.19 197.84C59 194.26 52 189.93 46.22 185.91L29 173.68L34.34 153.37L92.8 164.83L88.85 179.83L66.55 175.16C59.55 173.65 51.12 171.76 42.76 169.56L42.7 169.76C49.45 173.92 56.9 178.92 62.94 183.33L83.19 197.55L80 209.67L55.92 211.18ZM133.22 75.95C140.38 79.0897 147.322 82.7044 154 86.77L154.17 86.65C148.914 80.2177 144.048 73.4756 139.6 66.46L130.21 51.94L142.56 43.94L174.85 93.85L160.74 102.97L135.59 91.97C128.123 88.7888 120.868 85.1313 113.87 81.02L113.52 81.25C118.27 87.63 123 94.55 128.27 102.7L138 117.7L125.65 125.7L93.35 75.77L109 65.61L133.22 75.95ZM214.51 24.9L216.72 35.7L189.66 41.24L192.14 53.34L217.65 48.12L219.84 58.77L194.33 64L197.16 77.82L225.66 71.99L227.87 82.79L183.73 91.79L171.81 33.55L214.51 24.9ZM257.12 25.96L251.72 73.77L279.72 76.93L278.45 88.15L234.63 83.15L241.3 24.08L257.12 25.96ZM322.29 42.61L302.5 86.49L328.16 98.05L323.52 108.35L283.32 90.22L307.74 36.02L322.29 42.61ZM377 76.26L340.31 123.05L327.74 113.21L364.41 66.42L377 76.26ZM348.43 315.77C347.587 316.09 346.901 316.724 346.516 317.538C346.13 318.353 346.074 319.285 346.36 320.14C346.46 320.41 355.36 347.91 344.05 368.38C338.49 378.38 328.85 385.17 315.39 388.52C310.8 388.12 273.54 383.76 247.54 347.01C247.099 346.396 246.471 345.94 245.751 345.711C245.03 345.482 244.255 345.493 243.54 345.74C242.82 345.998 242.204 346.485 241.787 347.126C241.37 347.767 241.174 348.527 241.23 349.29C242.36 364.66 241.57 390.78 234.92 398.11H220.33C225.46 391.212 229.153 383.354 231.188 375.002C233.224 366.65 233.561 357.975 232.18 349.49C232.075 348.81 231.771 348.177 231.307 347.669C230.842 347.162 230.238 346.804 229.57 346.64C228.901 346.472 228.198 346.506 227.548 346.737C226.898 346.968 226.332 347.387 225.92 347.94C225.61 348.36 194.5 389.48 159.82 388.53C144.34 388.11 135.54 378.39 130.89 370.31C122.21 355.23 120.89 333.44 127.8 320.71C128.034 320.279 128.176 319.803 128.215 319.314C128.255 318.825 128.192 318.333 128.03 317.87C127.864 317.402 127.599 316.976 127.254 316.619C126.909 316.261 126.492 315.982 126.03 315.8C118.282 312.178 111.406 306.929 105.87 300.41C94.15 286.41 92.15 269.18 99.94 249.31C104.35 238.07 111.64 230.46 121.61 226.69C147.24 217.01 182.73 234.96 183.08 235.14C183.763 235.495 184.545 235.613 185.303 235.478C186.06 235.342 186.752 234.96 187.27 234.39C187.788 233.824 188.105 233.102 188.172 232.338C188.239 231.573 188.052 230.808 187.64 230.16C182.762 222.242 178.322 214.063 174.34 205.66C166.08 188.14 162.41 174.27 163.71 165.55C165.5 153.54 174 133.58 190 127.7C202.64 123.04 217.53 128.07 234.25 142.64C234.907 143.213 235.753 143.52 236.624 143.501C237.495 143.483 238.328 143.14 238.96 142.54C239.19 142.33 262.01 120.97 282.96 125.94C291.61 128 302.69 136.8 307.96 151.82C318.51 182.08 298.76 213.69 286.05 229.82C285.562 230.438 285.296 231.202 285.296 231.99C285.296 232.778 285.562 233.542 286.05 234.16C286.539 234.779 287.223 235.215 287.991 235.396C288.759 235.578 289.565 235.494 290.28 235.16C290.81 234.91 343.13 210.65 368.11 240.25C381.17 255.73 380.8 271.09 378.19 281.25C374.16 296.57 362.24 310.42 348.43 315.77ZM414.7 162.27L410 153.77C418.33 153.603 426.621 152.598 434.75 150.77L441.54 164.07C432.553 164.623 423.532 164.018 414.7 162.27V162.27ZM413.76 134.09L396.84 112.26L387.08 119.83L403.08 140.41L394.43 147.11L378.43 126.53L367.28 135.18L385.1 158.18L376.38 164.94L348.8 129.32L395.8 92.89L422.5 127.33L413.76 134.09ZM95.86 112.09C93.3473 113.782 91.1564 115.909 89.39 118.37C84.28 125.05 84.96 132.44 90.63 136.64C96.87 141.41 104.06 138.97 108.78 132.8C110.719 130.385 112.215 127.646 113.2 124.71L122.2 129.2C121.39 132.2 118.84 136.94 115.14 141.78C105.06 154.96 91.82 158.19 81.14 150C71.14 142.34 69.14 127.89 80.78 112.71C83.268 109.427 86.207 106.511 89.51 104.05L95.86 112.09Z" fill="white"/>
</g>
<defs>
<clipPath id="clip0_601_1817">
<rect width="473" height="473" fill="white"/>
</clipPath>
</defs>
</svg>
